X: 14569
T: Gan Ainm
R: mazurka
M: 3/4
K: Amajor
|:A>B|c2 c>A f>e|d2 d>c B>A|G>B E2 F>G|A>E A>c e>d|
c>d c>A (3gfe|(3ded d>c B>A|G>B E2 F>G|A2 A2-:|
|:A>c|e>f e>d c2|c>d c>B A2|G>B E2 F>G|A>E A>c e>a|
e2 e>d (3cBA|c>d c>B A>E|G2 G>E F>G|A2 A>E:|
|:A>f|(3efe c2 a2|(3efe A2 c2|(3BdB E2 G2|A>E A>c e>a|
(3efe c>A a>f|(3efe A>E A>c|(3BdB E2 F>G|A2 A2-:|

